X:23
T:Vals
R:vals
Z:id:hn-vals-23
M:3/4
L:1/8
K:Amix
c>c c2 c2 | d2 d2 d2 | c2 BA GB | A>A ce a2 |
c>c c2 c2 | d2 d2 d2 | c2 BA GB | A6 :|
|: e>f ed cB | c2 A4 | e>f ed cB | cB A4 | e>f ed cB | c2 g3 f |
e>f ed cB | A2 a4 | e>f ed cB | c2 BA GB | A6 :|
